/* XPM */
static char *collectible[] = {
/* columns rows colors chars-per-pixel */
"48 48 6 1 ",
"  c black",
". c #DB2525",
"X c #5DAA6C",
"o c #AFD07C",
"O c gray78",
"+ c gray86",
/* pixels */
"oooooooooooooooooooooooooooooooooooooooooooooooo",
"oooooooooooooooooooooooooooooooooooooooooooooooo",
"oooooooooooooooooooooooooooooooooooooooooooooooo",
"oooooooooooooooooooooooooooooooooooooooooooooooo",
"oooooooooooooooooooooooooooooooooooooooooooooooo",
"oooooooooooooooooooooooooooooooooooooooooooooooo",
"oooooooooooooooooo            oooooooooooooooooo",
"oooooooooooooooooo            oooooooooooooooooo",
"oooooooooooooooooo            oooooooooooooooooo",
"oooooooooooo      ............      XXXooooooooo",
"oooooooooooo      ............      XXXooooooooo",
"oooooooooooo      ............      XXXooooooooo",
"ooooooooo   ........................   oooXXXooo",
"ooooooooo   ........................   oooXXXooo",
"ooooooooo   ........................   oooXXXooo",
"ooooooooo   ........................   oooXXXooo",
"ooooooooo   ........................   oooXXXooo",
"ooooooooo   ........................   oooXXXooo",
"oooooo   ..............................   oooooo",
"oooooo   ..............................   oooooo",
"oooooo   ..............................   oooooo",
"oooooo   ............      ............   oooooo",
"oooooo   ............      ............   oooooo",
"oooooo   ............      ............   oooooo",
"oooooo      ......   OOOOOO   ......      oooooo",
"oooooo      ......   OOOOOO   ......      oooooo",
"oooooo      ......   OOOOOO   ......      oooooo",
"oooooo   +++         OOOOOO         +++   oooooo",
"oooooo   +++         OOOOOO         +++   oooooo",
"oooooo   +++         OOOOOO         +++   oooooo",
"ooooooooo   +++++++++      +++++++++   ooooooooo",
"ooooooooo   +++++++++      +++++++++   ooooooooo",
"ooooooooo   +++++++++      +++++++++   ooooooooo",
"ooooooooo   ++++++++++++++++++++++++   ooooooooo",
"ooooooooo   ++++++++++++++++++++++++   ooooooooo",
"ooooooooo   ++++++++++++++++++++++++   ooooooooo",
"ooooooXXXooo      ++++++++++++      oooooooooooo",
"ooooooXXXooo      ++++++++++++      oooooooooooo",
"ooooooXXXooo      ++++++++++++      oooooooooooo",
"ooooooXXXoooXXXooo            oooooooooooooooooo",
"ooooooXXXoooXXXooo            oooooooooooooooooo",
"ooooooXXXoooXXXooo            oooooooooooooooooo",
"oooooooooooooooooooooooooooooooooooooooooooooooo",
"oooooooooooooooooooooooooooooooooooooooooooooooo",
"oooooooooooooooooooooooooooooooooooooooooooooooo",
"oooooooooooooooooooooooooooooooooooooooooooooooo",
"oooooooooooooooooooooooooooooooooooooooooooooooo",
"oooooooooooooooooooooooooooooooooooooooooooooooo"
};
