/* XPM */
static char *exit[] = {
/* columns rows colors chars-per-pixel */
"48 48 11 1 ",
"  c gray4",
". c #D10000",
"X c #8A5300",
"o c #5DAA6C",
"O c #FFBF00",
"+ c #FFC110",
"@ c #FFC31A",
"# c #FFE600",
"$ c #FFCA2C",
"% c #EAC43F",
"& c #AFD07C",
/* pixels */
"&&&&&&&&&&&&&&&&&&&&&&&&&&&&&&&&&&&&&&&&&&&&&&&&",
"&&&&&&&&&&&&&&&&&&&&&&&&&&&&&&&&&&&&&&&&&&&&&&&&",
"&&&&&&&&&&&&&&&&&&&&&&&&&&&&&&&&&&&&&&&&&&&&&&&&",
"&&&&&&&&&&&&&&&&&&&&&&&&&&&&&&&&&&&&&&&&&&&&&&&&",
"&&&&&&&&&&&&&&&&&&&&&&&&&&&&&&&&&&&&&&&&&&&&&&&&",
"&&&&&&&&&&&&&&&&&&&&&&&&&&&&&&&&&&&&&&&&&&&&&&&&",
"&&&&&&&&&&&&&&&&&&&&&&&&&&&&&&&&&&&&&&&&&&&&&&&&",
"&&&&&&&&&&&&&&&&&&&&&&&&&&&&&&&&&&&&&&&&&&&&&&&&",
"&&&&&&&&&&&&&&&&&&&&&&&&&&&&&&&&&&&&&&&&&&&&&&&&",
"&&&&&&&&&&&&&&&&&&&&&&&&&&&&&&&&&&&&ooo&&&&&&&&&",
"&&&&&&&&&&&&&&&&&&&&&&&&&&&&&&&&&&&&ooo&&&&&&&&&",
"&&&&&&&&&&&&&&&&&&&&&&&&&&&&&&&&&&&&ooo&&&&&&&&&",
"&&&&&&&&&&&&      &&&&&&&&&&&&   &&&ooo&&&ooo&&&",
"&&&&&&&&&&&&      &&&&&&&&&&&&   &&&ooo&&&ooo&&&",
"&&&&&&&&&&&&      &&&&&&&&&&&&   &&&ooo&&&ooo&&&",
"&&&&&&&&&&&&&&&###OOO&&&&&&&&&%$%&&&ooo&&&ooo&&&",
"&&&&&&&&&&&&&&&###OOO&&&&&&&&&$$$&&&ooo&&&ooo&&&",
"&&&&&&&&&&&&&&&###OOO&&&&&&&&&$$$&&&ooo&&&ooo&&&",
"&&&&&&&&&&&&&&&&&&############+@+&&&&&&&&&&&&&&&",
"&&&&&&&&&&&&&&&&&&############OOO&&&&&&&&&&&&&&&",
"&&&&&&&&&&&&&&&&&&############OOO&&&&&&&&&&&&&&&",
"&&&&&&&&&OOOOOO&&&###   ######   &&&&&&&&&&&&&&&",
"&&&&&&&&&OOOOOO&&&###   ######   &&&&&&&&&&&&&&&",
"&&&&&&&&&OOOOOO&&&###   ######   &&&&&&&&&&&&&&&",
"&&&&&&&&&OOOOOO&&&...#########OOO&&&&&&&&&&&&&&&",
"&&&&&&&&&OOOOOO&&&...#########OOO&&&&&&&&&&&&&&&",
"&&&&&&&&&OOOOOO&&&...#########OOO&&&&&&&&&&&&&&&",
"&&&&&&&&&&&&XXX&&&###OOOOOOOOO&&&&&&&&&&&&&&&&&&",
"&&&&&&&&&&&&XXX&&&###OOOOOOOOO&&&&&&&&&&&&&&&&&&",
"&&&&&&&&&&&&XXX&&&###OOOOOOOOO&&&&&&&&&&&&&&&&&&",
"&&&&&&&&&&&&XXX###OOO###OOO###&&&&&&&&&&&&&&&&&&",
"&&&&&&&&&&&&XXX###OOO###OOO###&&&&&&&&&&&&&&&&&&",
"&&&&&&&&&&&&XXX###OOO###OOO###&&&&&&&&&&&&&&&&&&",
"&&&&&&&&&&&&ooo###OOOXXXXXXOOO&&&&&&&&&&&&&&&&&&",
"&&&&&&&&&&&&ooo###OOOXXXXXXOOO&&&&&&&&&&&&&&&&&&",
"&&&&&&&&&&&&ooo###OOOXXXXXXOOO&&&&&&&&&&&&&&&&&&",
"&&&&&&ooo&&&ooo&&&ooo&&&&&&&&&&&&&&&&&&&&&&&&&&&",
"&&&&&&ooo&&&ooo&&&ooo&&&&&&&&&&&&&&&&&&&&&&&&&&&",
"&&&&&&ooo&&&ooo&&&ooo&&&&&&&&&&&&&&&&&&&&&&&&&&&",
"&&&&&&ooo&&&ooo&&&ooo&&&&&&&&&&&&&&&&&&&&&&&&&&&",
"&&&&&&ooo&&&ooo&&&ooo&&&&&&&&&&&&&&&&&&&&&&&&&&&",
"&&&&&&ooo&&&ooo&&&ooo&&&&&&&&&&&&&&&&&&&&&&&&&&&",
"&&&&&&&&&&&&&&&&&&&&&&&&&&&&&&&&&&&&&&&&&&&&&&&&",
"&&&&&&&&&&&&&&&&&&&&&&&&&&&&&&&&&&&&&&&&&&&&&&&&",
"&&&&&&&&&&&&&&&&&&&&&&&&&&&&&&&&&&&&&&&&&&&&&&&&",
"&&&&&&&&&&&&&&&&&&&&&&&&&&&&&&&&&&&&&&&&&&&&&&&&",
"&&&&&&&&&&&&&&&&&&&&&&&&&&&&&&&&&&&&&&&&&&&&&&&&",
"&&&&&&&&&&&&&&&&&&&&&&&&&&&&&&&&&&&&&&&&&&&&&&&&"
};
