/* XPM */
static char *ground[] = {
/* columns rows colors chars-per-pixel */
"48 48 2 1 ",
"  c #5DAA6C",
". c #AFD07C",
/* pixels */
"................................................",
"................................................",
"................................................",
"................................................",
"................................................",
"................................................",
"................................................",
"................................................",
"................................................",
"....................................   .........",
"....................................   .........",
"....................................   .........",
"..............................   ...   ...   ...",
"..............................   ...   ...   ...",
"..............................   ...   ...   ...",
"..............................   ...   ...   ...",
"..............................   ...   ...   ...",
"..............................   ...   ...   ...",
"................................................",
"................................................",
"................................................",
"................................................",
"................................................",
"................................................",
"................................................",
"................................................",
"................................................",
"................................................",
"................................................",
"................................................",
"................................................",
"................................................",
"................................................",
"............   .................................",
"............   .................................",
"............   .................................",
"......   ...   ...   ...........................",
"......   ...   ...   ...........................",
"......   ...   ...   ...........................",
"......   ...   ...   ...........................",
"......   ...   ...   ...........................",
"......   ...   ...   ...........................",
"................................................",
"................................................",
"................................................",
"................................................",
"................................................",
"................................................"
};
