/* XPM */
static char *Hostile[] = {
/* columns rows colors chars-per-pixel */
"48 48 68 1 ",
"  c #DB2525",
". c #D93E2E",
"X c #CD5038",
"o c #D36A43",
"O c #CF7A4B",
"+ c #CF7C4D",
"@ c #CE7F4E",
"# c #D17046",
"$ c #D17146",
"% c #D07448",
"& c #D17448",
"* c #D07549",
"= c #D07649",
"- c #D0784A",
"; c #5DAA6C",
": c #64A86B",
"> c #968F5C",
", c #9E8958",
"< c #9C8B5A",
"1 c #9B8C5A",
"2 c #988E5B",
"3 c #93925D",
"4 c #8B9660",
"5 c #8A9760",
"6 c #8A9761",
"7 c #BEB26B",
"8 c #BBB76E",
"9 c #BDB46C",
"0 c #BCB66D",
"q c #BCB76D",
"w c #BBB86E",
"e c #BBB96E",
"r c #BBB96F",
"t c #BABA6F",
"y c #BABB70",
"u c #B9BC70",
"i c #CB8A54",
"p c #CA8D56",
"a c #CA8E57",
"s c #C99057",
"d c #C99158",
"f c #C99259",
"g c #C59D5F",
"h c #C69C5E",
"j c #C59E5F",
"k c #C59F60",
"l c #C3A362",
"z c #C4A261",
"x c #C3A463",
"c c #C2A664",
"v c #C1A966",
"b c #C1AA66",
"n c #C0AB67",
"m c #C0AC67",
"M c #C0AD68",
"N c #AFCF7C",
"B c #B5C475",
"V c #B6C475",
"C c #B5C576",
"Z c #B4C676",
"A c #B5C676",
"S c #B4C777",
"D c #B3C877",
"F c #B3C978",
"G c #B0CD7B",
"H c #B0CE7B",
"J c #B0CF7B",
"K c #AFD07C",
/* pixels */
"KKKKKKKKKKKKKKKKKKKKKKKKKKKKKKKKKKKKKKKKKKKKKKKK",
"KKKKKKKKKKKKKKKKKKKKKKKKKKKKKKKKKKKKKKKKKKKKKKKK",
"KKKKKKKKKKKKKKKKKKKKKKKKKKKKKKKKKKKKKKKKKKKKKKKK",
"KKKKKKKKKKKKKKKKKKKKKKKKKKKKKKKKKKKKKKKKKKKKKKKK",
"KKKKKKKKKKKKKKKKKKKKKKKKKKKKKKKKKKKKKKKKKKKKKKKK",
"KKKKKKKKKKKKKKKKKKKKKKKKKKKKKKKKKKKKKKKKKKKKKKKK",
"KKKKKKKKKKKKKKKKKKKKKKKKKKKKKKKKKKKKKKKKKKKKKKKK",
"KKKKKKKKKKKKKKKKKKKKKKKKKKKKKKKKKKKKKKKKKKKKKKKK",
"KKKKKKKKKKKKKKKKKKKKKKKKKKKKKKKKKKKKKKKKKKKKKKKK",
"KKKKKKKKKKKKKKKKKKKKKKKKKKKKKKKKNJKK;;;KKKKKKKKK",
"KKKKKKKKKKKKKNSqJNKKKKKKKKKKKNJSSJKK;;;KKKKKKKKK",
"KKKKKKKKKKKKKFi qKKKKKKKKKKKKJS==SKK;;;KKKKKKKKK",
"KKKKKKKKKKKKKS# xKKKKKKKKKKKKK3  7NK;;;KKK;;;KKK",
"KKKKKKKKKKKKKS= vKKKKKKKKKKKKK5  rKK;;;KKK;;;KKK",
"KKKKKKKKKKKKKS= nKKKKKKKKKKKKK5  rKK;;;KKK;;;KKK",
"KKKKKKKKKKKKKS= nKKKKKKKKKKKKJ,  vKK;;;KKK;;;KKK",
"KKKKKKKKKKKKKD- nKKKKKKKKKKKKK2 XSJK;;;KKK;;;KKK",
"KKKKKKKKKKKKKD% nKKKKKKKKKKKKK5  uJK;;;KKK;;;KKK",
"KKKKKKKKKKKKKD% nKKKKKKKKKKKKKr  rKKKKKKKKKKKKKK",
"KKKKKKKKKKKKKD- nKKKKKKKKKKKKNc &SKKKKKKKKKKKKKK",
"KKKKKKKKKKKKKD% nKKKKKKKKKKKKDi cJNKKKKKKKKKKKKK",
"KKKKKKKKKKKKKZ% nKKKKKKKKKKKKNf zKNKKKKKKKKKKKKK",
"KKKKKKKKKKKKKD% krrrrrurrtrurrs zNKKKKKKKKKKKKKK",
"KKKKKKKKKKKKKD% .               sKKKKKKKKKKKKKKK",
"KKKKKKKKKKKKKZ% .               dKKKKKKKKKKKKKKK",
"KKKKKKKKKKKKKZ$ jttttttttttttp  rKKKKKKKKKKKKKKK",
"KKKKKKKKKKKKKu  wKKKKKKKKKKKKw  rKKKKKKKKKKKKKKK",
"KKKKKKKKKKKKKt  tKKKKKKKKKKKKr  tKKKKKKKKKKKKKKK",
"KKKKKKKKKKKKKt  tKKKKKKKKKKKK7 oSKKKKKKKKKKKKKKK",
"KKKKKKKKKKKKKt  tKKKKKKKKKKKKw  tKKKKKKKKKKKKKKK",
"KKKKKKKKKKKKKt  tKKKKKKKKKKKD7 #ZKKKKKKKKKKKKKKK",
"KKKKKKKKKKKKKw  uKKKKKKKKKGGG7 #ZKKKKKKKKKKKKKKK",
"KKKKKKKKKKKKKl aJJJKKKKKKKKKNr  yKKKKKKKKKKKKKKK",
"KKKKKKKKKKKK;, -DKKKKKKKKKKKNy  rKKKKKKKKKKKKKKK",
"KKKKKKKKKKKK;< -DKKKKKKKKKKKKy  rKKKKKKKKKKKKKKK",
"KKKKKKKKKKKK;2 =DKKKKKKKKKKKJy  rKKKKKKKKKKKKKKK",
"KKKKKK;;;KKK;2 -DK;;;KKKKKKKKy  tKKKKKKKKKKKKKKK",
"KKKKKK;;;KKK;:>DKK;;;KKKKKKKJy  uKKKKKKKKKKKKKKK",
"KKKKKK;;;KKK;;;KKK;;;KKKKKKKKJyyNKKKKKKKKKKKKKKK",
"KKKKKK;;;KKK;;;KKK;;;KKKKKKKKKJKKKKKKKKKKKKKKKKK",
"KKKKKK;;;KKK;;;KKK;;;KKKKKKKKKKKKKKKKKKKKKKKKKKK",
"KKKKKK;;;KKK;;;KKK;;;KKKKKKKKKKKKKKKKKKKKKKKKKKK",
"KKKKKKKKKKKKKKKKKKKKKKKKKKKKKKKKKKKKKKKKKKKKKKKK",
"KKKKKKKKKKKKKKKKKKKKKKKKKKKKKKKKKKKKKKKKKKKKKKKK",
"KKKKKKKKKKKKKKKKKKKKKKKKKKKKKKKKKKKKKKKKKKKKKKKK",
"KKKKKKKKKKKKKKKKKKKKKKKKKKKKKKKKKKKKKKKKKKKKKKKK",
"KKKKKKKKKKKKKKKKKKKKKKKKKKKKKKKKKKKKKKKKKKKKKKKK",
"KKKKKKKKKKKKKKKKKKKKKKKKKKKKKKKKKKKKKKKKKKKKKKKK"
};
