/* XPM */
static char *playerUp[] = {
/* columns rows colors chars-per-pixel */
"48 48 178 2 ",
"   c #192D5F",
".  c #1B2E5F",
"X  c #122D60",
"o  c #142C60",
"O  c #172E60",
"+  c #182E60",
"@  c #192F60",
"#  c #1A2E60",
"$  c #1C2F60",
"%  c #1B3160",
"&  c #1D3060",
"*  c #1D3360",
"=  c #1F3260",
"-  c #203160",
";  c #213360",
":  c #223263",
">  c #223460",
",  c #233660",
"<  c #243761",
"1  c #253761",
"2  c #253465",
"3  c #283566",
"4  c #263961",
"5  c #2B3D61",
"6  c #2A3669",
"7  c #333161",
"8  c #333761",
"9  c #393666",
"0  c #333963",
"q  c #333C63",
"w  c #343964",
"e  c #383F64",
"r  c #3D3E66",
"t  c #3E3E66",
"y  c #323B6F",
"u  c #493E5F",
"i  c #403762",
"p  c #423862",
"a  c #463F62",
"s  c #4D3E62",
"d  c #3B4F63",
"f  c #3C466C",
"g  c #3D5063",
"h  c #4E405F",
"j  c #53425F",
"k  c #53445F",
"l  c #57445F",
"z  c #4D5459",
"x  c #505759",
"c  c #515759",
"v  c #545A59",
"b  c #555D5A",
"n  c #484262",
"m  c #594662",
"M  c #5C4461",
"N  c #554A68",
"B  c #405263",
"V  c #415363",
"C  c #425563",
"Z  c #5E5862",
"A  c #404A73",
"S  c #444D75",
"D  c #614E64",
"F  c #645565",
"G  c #615D6C",
"H  c #625E6C",
"J  c #66616D",
"K  c #6A6D6E",
"L  c #964768",
"P  c #974E6B",
"I  c #984868",
"U  c #9A4B68",
"Y  c #9B4C68",
"T  c #994E6B",
"R  c #9C4D68",
"E  c #9B516C",
"W  c #AB656E",
"Q  c #AB666E",
"!  c #B1676F",
"~  c #B26A6E",
"^  c #B36A6F",
"/  c #B46B6E",
"(  c #B76E6D",
")  c #B86F6D",
"_  c #B16970",
"`  c #B16B72",
"'  c #5CAA6C",
"]  c #5DAA6C",
"[  c #5FAB6C",
"{  c #9DBC77",
"}  c #A0BD78",
"|  c #DA8F58",
" . c #D88D5A",
".. c #DE8F59",
"X. c #DB9058",
"o. c #DC9058",
"O. c #DF9059",
"+. c #E19357",
"@. c #E39557",
"#. c #E49557",
"$. c #E09259",
"%. c #E39458",
"&. c #F3AB7C",
"*. c #FDB17F",
"=. c #FDB27F",
"-. c #B3CC6B",
";. c #ABC671",
":. c #AFCC73",
">. c #A3C279",
",. c #A4C278",
"<. c #A4C479",
"1. c #A6C579",
"2. c #A6C679",
"3. c #A7C77A",
"4. c #A8C77A",
"5. c #A8C87A",
"6. c #ABCB7B",
"7. c #ABCC7B",
"8. c #AFCF7C",
"9. c #B0CC73",
"0. c #B0CD73",
"q. c #B2CE73",
"w. c #AFD07C",
"e. c #AFD17C",
"r. c #B0D17C",
"t. c #605B93",
"y. c #625C95",
"u. c #625D96",
"i. c #635D96",
"p. c #665C95",
"a. c #655E96",
"s. c #6C5E93",
"d. c #685D95",
"f. c #705F92",
"g. c #79638E",
"h. c #686096",
"j. c #696096",
"k. c #6F6395",
"l. c #7B6591",
"z. c #A3838F",
"x. c #A4838F",
"c. c #A4848F",
"v. c #A6858F",
"b. c #A8868F",
"n. c #A28290",
"m. c #F2AC83",
"M. c #F5AE84",
"N. c #FBB181",
"B. c #F8B083",
"V. c #FCB281",
"C. c #FEB382",
"Z. c #FFB482",
"A. c #F5D6A5",
"S. c #F3D9A8",
"D. c #F4D9A8",
"F. c #F5DBA9",
"G. c #FFDEAA",
"H. c #FEE2AD",
"J. c #FFE3AE",
"K. c #8E83D2",
"L. c #9286D7",
"P. c #9287D7",
"I. c #9388D9",
"U. c #978BDE",
"Y. c #B6BAE0",
"T. c #B8BBE1",
"R. c #B8BBE2",
"E. c #BDC0E3",
"W. c #C2C5EC",
"Q. c #C4C7EE",
"!. c #C9CBEF",
"~. c #EBEAF2",
"^. c #F0EFF8",
"/. c #F5F5F6",
"(. c #F2F1F8",
"). c #F2F1F9",
"_. c #FBFBFC",
"`. c gray99",
/* pixels */
"0.:.0.0.0.0.0.0.0.0.q.0.q.q.;.c c c z z z c c c z c v v c c v v b 0.0.0.0.0.0.0.0.0.9.9.0.0.0.-.",
"w.w.w.w.r.r.r.r.w.w.r.r.8.r.5.. + = + = $ $ $ $ $ $ $ $ $ $ $ $ 4 w.r.r.r.r.w.w.r.r.8.8.8.8.8.0.",
"w.w.w.w.8.8.r.r.w.w.w.w.r.r.5.. $ + + + + $ + + + + $ + + $ + + 4 w.w.w.r.w.w.w.w.w.8.w.r.8.r.0.",
"w.w.w.w.r.8.8.r.w.w.w.5.- + n #.#.#.#.#.#.#.#.#.#.#.#.#.#.#.#.#.O.O = 4 r.w.w.w.w.w.w.w.r.r.r.0.",
"w.w.w.w.8.w.w.w.w.w.w.2.$ $ h #.#.#.#.#.#.#.#.#.#.#.#.#.#.#.#.#.+.O $ 1 w.w.w.w.w.w.w.w.w.w.r.0.",
"w.w.w.w.w.w.w.w.w.w.w.4.+ O h #.#.#.#.#.#.#.#.#.#.#.#.#.#.#.#.#.@.X + > r.w.w.w.w.w.w.w.w.w.r.0.",
"w.w.w.w.w.w.w.w.2.= = k @.@.#.#.#.#.#.#.#.#.#.#.#.#.#.#.#.#.#.#.#.@.@.+.% = 1 w.w.w.w.w.w.w.w.0.",
"w.w.w.w.w.w.w.w.2.$ $ j #.#.#.#.#.#.#.#.#.#.#.#.#.#.#.#.#.#.#.#.#.#.#.@.O $ > w.w.w.w.w.w.w.w.0.",
"w.w.w.w.w.w.w.w.2.$ $ j #.#.#.#.#.#.#.#.#.#.#.#.#.#.#.#.#.#.#.#.#.#.#.@.O + > w.8.e.8.e.8.r.8.0.",
"w.w.w.w.w.w.w.w.2.$ $ j #.#.#.#.#.#.#.#.#.#.#.#.#.#.#.#.#.#.#.#.#.#.#.@.+ $ > w.e.8.e.8.e.8.r.9.",
"w.w.w.w.w.w.w.w.2.$ $ j #.#.#.#.#.#.#.#.#.#.#.#.#.#.#.#.#.#.#.#.#.#.@.@.O $ > w.8.e.8.e.8.e.r.0.",
"w.w.w.w.w.w.w.w.2.$ $ j #.#.#.#.#.#.#.#.#.#.#.#.#.#.#.#.#.#.#.#.@.@.@.@.O $ > w.e.8.e.8.e.8.8.0.",
"w.w.w.w.w.w.w.w.2.$ $ j #.#.#.#.#.#.#.#.#.#.#.#.#.#.#.#.#.#.#.#.#.#.#.@.  $ ; r.8.e.] ] ] r.r.0.",
"w.w.w.w.w.w.w.w.2.$ $ j #.#.#.#.#.#.#.#.#.#.#.#.#.#.#.#.#.#.#.#.#.#.#.@.  . ; r.e.8.] ] ] 8.8.0.",
"w.w.w.w.w.w.w.w.2.$ $ j #.#.#.#.#.#.#.#.#.#.#.#.#.#.#.#.#.#.#.#.@.@.@.#.  . ; r.r.8.] ] ] e.8.0.",
"w.w.w.w.w.w.w.w.2.$ $ p ^ ^ ) #.#.#.#.#.#.#.#.#.#.#.#.#.#.#.#.#.@.^ ^ /   . ; r.8.r.] ] ] 8.r.0.",
"w.w.w.w.w.w.r.8.2.    u ^ ! ( #.#.#.#.#.#.#.#.#.#.#.#.#.#.#.#.#.@.^ ^ ^   O > w.w.w.' ' ] e.8.0.",
"w.w.w.w.w.w.8.8.2.    9 ^ / ( #.#.#.#.#.#.#.#.#.#.#.#.#.#.#.#.#.+.^ ! ! O O = w.w.w.' ' ] 8.e.0.",
"w.w.w.w.w.2.5 5 F C.C.m.p.a.k./ / / / / _ Y Y U Y Y R / / / / / ^ a.d.a.N.N.N.4 > f w.w.8.e.r.0.",
"w.w.w.8.8.2.$ $ D C.C.M.y.p.s.^ _ ! / ! ! I I I I I U _ / _ ! / ^ a.u.h.Z.Z.Z.O   = w.w.8.r.8.0.",
"w.w.w.w.8.2.. $ D C.C.M.u.u.s.^ / ! _ / ! I L I I I U _ ! _ / _ _ u.u.h.C.C.B.X % $ 8.e.8.e.8.0.",
"w.w.w.w.e.2.= + D C.C.C.v.v.n.a.d.d.d.a.d.p.p.p.p.p.p.d.d.d.d.a.h.v.z.v.Z.C.C.  % * e.e.e.8.r.0.",
"w.w.w.w.r.,.$ $ D Z.C.B.b.v.n.u.a.u.a.a.p.u.a.a.a.y.y.u.a.u.a.a.u.v.z.b.Z.Z.C.+ $ > r.e.8.e.8.0.",
"w.w.w.w.e.2.    D Z.C.B.b.n.n.h.a.u.y.u.y.u.y.u.a.u.a.u.y.y.a.u.d.b.b.b.Z.Z.C.+   $ e.e.e.8.e.0.",
"w.w.w.w.w.8.7.7.,.a a N n.b.b.n.z.z.z.z.z.z.z.v.n.n.x.x.z.z.z.z.v.v.v.v.a a n 8.w.5.w.w.r.8.r.q.",
"w.w.w.w.w.w.w.w.4.$ $ r n.b.n.b.v.v.v.v.v.v.v.v.v.v.v.v.v.v.v.v.v.v.v.x.    = w.w.w.w.w.8.r.r.0.",
"w.w.w.w.w.w.w.w.2.O + r b.b.v.n.v.v.v.v.v.v.v.v.v.v.v.v.n.b.v.v.v.v.v.v.    > w.w.w.w.w.r.8.r.0.",
"w.w.w.w.w.w.w.w.8.8.5.>.w w r d.h.k.v.v.v.v.v.v.v.v.v.v.b.n.d.d.d.w w e 8.5.7.w.w.w.w.w.w.w.r.0.",
"w.w.w.w.w.w.w.w.w.w.w.5.$ $ 3 u.u.k.v.v.b.b.v.v.v.v.v.b.b.v.u.u.u.. . 1 w.w.w.w.w.w.w.w.w.w.w.0.",
"w.w.w.w.w.w.w.w.w.w.w.2.$ $ 3 p.u.h.v.v.n.b.v.v.v.v.v.n.v.v.a.u.u.+ $ 1 w.w.w.w.w.w.w.w.w.w.w.0.",
"w.w.w.w.w.w.w.w.w.w.r.2.$ $ = 3 2 9 T T E _ ` _ _ ` _ T T P 2 2 2 $ = > w.w.w.w.w.w.w.w.w.w.8.0.",
"w.w.w.w.w.w.w.w.8.8.8.2.$ $ . .   7 T L T _ _ / _ _ ! L U L O = -   + 4 w.w.w.w.w.w.w.w.w.8.w.:.",
"w.w.w.w.w.w.w.w.w.w.8.,.  + = $ + 7 U I Y / / _ ! / ! I I I + $ $ $ $ 1 e.e.e.e.8.e.8.e.8.e.8.:.",
"w.w.w.w.w.w.w.w.2.g d Z X.X. .W Q / ......$.$.$.$.$.$...$...W W W ..o. .g g g e.e.8.e.8.e.8.e.:.",
"w.w.w.w.8.w.8.r.2.+ $ m #.#.$._ ! / #.#.%.#.#.#.#.#.%.#.#.#./ _ ^ #.#.#.    % e.8.e.8.e.e.8.e.:.",
"w.w.w.w.r.8.8.r.2.= $ m #.#.$.^ / ) #.#.#.#.#.#.#.#.#.#.#.$.! / ^ #.@.@.% $ * e.e.8.e.8.8.e.e.:.",
"w.w.w.w.w.2.B B K D.S.A.*.*.&.p p M #.#.#.#.#.#.#.#.#.#.#.+.i i s *.*.*.D.D.S.g B C 8.e.e.8.e.0.",
"w.w.w.w.8.2.$ $ G J.J.J.C.C.M.$ $ u #.#.#.#.#.#.#.#.#.#.#.+.+ $ 0 Z.Z.Z.J.J.H.  ; $ e.8.8.e.8.9.",
"w.w.w.w.w.2.O $ G J.J.G.Z.C.&.= $ u #.#.#.#.#.#.#.#.#.#.#.#.+ $ 8 *.C.*.J.J.J.    - 8.e.8.8.8.0.",
"w.w.w.w.w.2.= + G J.J.J.G.G.A.+ . 3 l.l.g.l l l l l m l.l.g.+ $ 0 J.G.H.J.J.J.  = = e.8.e.r.r.0.",
"w.w.w.w.8.2.$ $ G J.J.J.J.J.F.  $ 3 a.a.t.  $ $ $ $ - u.u.u.$ $ 0 J.J.J.J.J.J.O + - w.w.w.w.w.0.",
"w.w.w.w.8.2.$ + G J.J.J.J.J.F.- $ 2 u.u.t.$ $ $ $ $ : u.a.a.+ + q J.J.J.J.J.J.+ = $ w.w.w.w.8.0.",
"w.w.w.w.8.8.2.2.} J J J J J H +   y P.P.K.$ $ $ $ $ 6 L.L.K.  = : J J J H J J 2.2.2.8.w.8.r.w.0.",
"w.w.w.w.w.w.w.w.2.  . . $ $ + = ; y U.U.I.$ $ $ $ $ 6 U.U.U.  - . + $ $ $ + - r.w.w.w.8.w.8.r.0.",
"w.w.w.w.w.w.w.w.4.+ $ $ $ $ $ $ - y U.U.P.$ $ . $ $ 6 U.U.U.    = . - + + = - 8.w.w.w.w.w.w.w.0.",
"w.w.w.w.w.w.w.w.8.2.,.{ $ $ A R.R.R.).).~.. . $ $ $ f ).).^.Y.R.Y.  = > 2.,.2.r.w.w.w.w.w.w.r.0.",
"w.w.w.w.w.w.w.w.8.r.r.2.$ $ S Q.Q.!.`.`./.  - $ .   A `.`._.Q.Q.Q.  + 4 w.w.w.w.w.w.8.w.8.r.r.0.",
"w.w.w.w.w.w.w.w.w.8.r.4.$ $ S Q.Q.!.`.`./.= . . . $ A `.`._.Q.Q.W.  $ 1 w.w.w.w.w.w.r.8.r.8.r.0."
};
