/* XPM */
static char *playerLeft[] = {
/* columns rows colors chars-per-pixel */
"48 48 100 2 ",
"   c #1A2E5F",
".  c #162D60",
"X  c #1B2F60",
"o  c #1E3260",
"O  c #292F65",
"+  c #233661",
"@  c #2F3361",
"#  c #273A61",
"$  c #2A3C61",
"%  c #343660",
"&  c #363A64",
"*  c #3C3A61",
"=  c #303A6D",
"-  c #333C70",
";  c #463C66",
":  c #3E4365",
">  c #374070",
",  c #3E4379",
"<  c #4E405F",
"1  c #55435F",
"2  c #5B465F",
"3  c #5D4A5F",
"4  c #4E5559",
"5  c #515759",
"6  c #535A59",
"7  c #60485F",
"8  c #4C4D67",
"9  c #495D64",
"0  c #525268",
"q  c #585269",
"w  c #5C596B",
"e  c #404A73",
"r  c #4F5775",
"t  c #515875",
"y  c #665C6A",
"u  c #5B617C",
"i  c #66616D",
"p  c #69646F",
"a  c #616078",
"s  c #637076",
"d  c #B3696F",
"f  c #B16B72",
"g  c #B97172",
"h  c #5AA46B",
"j  c #5DAA6C",
"k  c #63A76C",
"l  c #67AE6D",
"z  c #6AAF6E",
"x  c #73B26F",
"c  c #A1BF79",
"v  c #DC8F5D",
"b  c #DF9257",
"n  c #DE915B",
"m  c #E49557",
"M  c #E19259",
"N  c #FDB17F",
"B  c #B3CC6B",
"V  c #AAC571",
"C  c #AFCC73",
"Z  c #A5C579",
"A  c #A8C77A",
"S  c #A7CA7A",
"D  c #AACB7B",
"F  c #B1CD73",
"G  c #AFD07C",
"H  c #B0D17C",
"J  c #65308A",
"K  c #6E3788",
"L  c #6C3A89",
"P  c #763E87",
"I  c #474A82",
"U  c #5E5991",
"Y  c #635D96",
"T  c #685E95",
"R  c #736997",
"E  c #A5858F",
"W  c #AC888E",
"Q  c #BB8286",
"!  c #AC8C91",
"~  c #FEB483",
"^  c #F5D8A7",
"/  c #FADBA7",
"(  c #F5DBA9",
")  c #FBDEAB",
"_  c #FFE2AE",
"`  c #9E89D0",
"'  c #968ADD",
"]  c #A28CD4",
"[  c #A69DE2",
"{  c #B7BAE1",
"}  c #BBBDE5",
"|  c #C8C2E3",
" . c #C3C6ED",
".. c #C9C6E8",
"X. c #EDEDEF",
"o. c #EFEFF7",
"O. c #F7F3F5",
"+. c #FAF6F4",
"@. c #F2F1F8",
"#. c #FCFCFC",
/* pixels */
"F C C F F F F F F F F F F F V 4 5 5 5 4 4 4 5 4 4 5 6 6 5 5 6 6 5 5 5 6 V V V F F F F F F F C B ",
"G G G G H H H G G G H H H H Z X o X X X o X o X X X X X o X X o X o o + S Z S G D H G G G G G F ",
"G G G G G G G G H G H D G G Z o . X . X . X X X X . X . . X X X o . . + S Z S H G G G G G G H F ",
"G G G G G G G G H H H A o o < m m m m m m m m m m m m m m m m m m m m b o o + D G G G G G G H F ",
"G G G G G G G G G G G S     < m m m m m m m m m m m m m m m m m m m m m . o + G G G G G G G H F ",
"G G G G G G G G G H G S     < m m m m m m m m m m m m m m m m m m m m b . X o D G G G G G G H F ",
"G G G G G G G G Z o o 1 m m m m m m m m m m m m m m m m m m m m m m m m b m m o o + D G G G G F ",
"G G G G G G G G Z X   1 m m m m m m m m m m m m m m m m m m m m m m m m m m m . X + H H G G G F ",
"G G G G G G G D A o X 1 m m m m m m m m m m m m m m m m m m m m m m m m m m m . X o G G G G G F ",
"G G G G G Z + + o   X u #.#.O.m m m m m m m m m m m m m m m m m m m m m m m m . X o G G G G G F ",
"G G G G G Z X X X X X u #.#.+.m m m m m m m m m m m m m m m m m m m m m m m m . X + G G G G G C ",
"G G G G H Z . . X X X u #.#.+.m m m m m m m m m m m m m m m m m m m m m m m m . X X G G G G G F ",
"G G Z + + 3 m m v d d Q #.#.+.m m m m m m m m m m m m m m m m m m m m m m m m X X X j k j H G F ",
"G G Z X X 2 m m n d d Q #.#.+.m m m m m m m m m m m m m m m m m m m m m m m m . X + j j j G G C ",
"G G Z X X 2 m m n d d Q #.#.+.m m m m m m m m m m m m m m m m m m m m m m m m . X o j j j G H F ",
"G G Z X X 2 m m m m m v f g g m m m m m m m m m m m m m m m m m m m m m d f f . X o j j j G G F ",
"H H Z X   2 m m m m m n d d g m m m m m m m m m m m m m m m m m m m m m d d d . X X h j j H H F ",
"H D A X   7 m m m m m M d d d m m m m m m m m m m m m m m m m m m m m m d d f . X + j j j H H C ",
"G G G D D c % % 7 m m m m m n d d d g g d d d d d d d d d d g d d d d d T T T X X X D H D H H F ",
"G G G H H A X X 2 m m m m m n f d d d d d d d f d d d d d d d d d d d f Y Y Y . X + H H G G H F ",
"G G G G G Z     1 m m m M M M f d d d d d d f f d d d d d d d d f f f f Y U Y X X + H H H H H F ",
"G G G G G G D D c * * y _ _ ( % @ q _ ) ^ T Y R ) _ ) _ ) ) T T T Y T T E E E X X X H H H D H F ",
"G G G G G G G G A X   w _ _ ( X   0 _ _ ) Y Y R _ _ _ _ _ ) Y Y Y Y Y Y E E E . X + D D H H D F ",
"G G G G G G G G A     w _ _ ( X   0 _ _ ) Y Y R _ _ _ _ _ ) Y Y Y Y Y Y E E E X X + H H H H H F ",
"G G G G G G G G Z X X w _ _ ( X X 0 _ _ ) E E W _ _ _ _ _ _ E E E E E E E E E . o o G G H H H F ",
"G G G G G G G G Z X X w _ _ ( X X r _ _ ) E E W _ _ _ _ _ _ E E E E E E E E E X X o G G H H H F ",
"G G G G G G G G Z X X w _ _ ( . X 0 _ _ ) E E W _ _ _ _ _ _ E E E E E E E E E X . o G G H G H C ",
"G G G G G G G G G D D Z 8 8 p ) ( ) ~ ~ ~ E E W ~ ~ ~ ! ! ! E E E E E E & & & D D D G G G G H F ",
"G G G G G G G G G G G Z X X q _ _ _ ~ ~ ~ E E W ~ ~ ~ E E E E E E E E E X X + G H G G G G G G C ",
"G G G G G G G G G G G Z X o q _ _ _ ~ ~ ~ E E E ~ ~ ~ E E ! E E E E E E X X o G H G G G G G G C ",
"G G G G G G G G G G G G D D c 0 0 a ....| f f d d g f f f f L U L & & : D Z D G G G G G H G H C ",
"G G G G G G G G G G G G G G A X X e  . . .d d d d d d d d d J J J X X + G G G G G G G G H H H C ",
"G G G G G G G G G G G G G G Z o X e  . . .f f d d d d d d d J J J     + G G G G G G G G G G G C ",
"G G G G G G G G G G G D l l k X X r #.#.O.v M v K K P n b m v v v   o + G G G G G G G G G G G F ",
"G H G G G G G G G G G D j j h X X t #.#.+.m m M J J K m m m m m m . X + G G G G G G G G G G G F ",
"G G G G G G G G G G G D j j h o o t #.#.+.m m M J J K m m m m m M . o + G G G G G G G G G G G C ",
"G G G G G D z z x G G S j j h X o t #.#.+.m m b O O ; N N N _ ) / . X + G G G G G G G G G G G F ",
"G G G G G S j j l G G G j j h X X t #.#.+.m m b X X ; ~ N ~ _ _ _ . X + G G G G G G G G G G G C ",
"G G G G G S k j z G G D j j h X X t #.#.+.m m m X X * ~ ~ ~ _ _ ) . X + G G G G G G G G G G G F ",
"G G G G G D j j z G G D j j h X X > [ [ [ ] ] ` X X 8 ( ) ) _ _ _ . X + G G G G G G G G G G G F ",
"G G G G G D j j z G G D j j h o X - ' ' ' ' ' ' X X : _ _ _ _ _ _ . o + G G G G G G G G G G G F ",
"G G G G G D j j z G G D j j j . X = ' ' ' ' ' ' X o : _ _ _ _ _ ) . X + G G G G G G G G G G D C ",
"G G G G G G G S D G G G D S S Z Z c , , I ' ' ' U U U p p p i i p Z Z Z G G G G G G G G H H H F ",
"G G G G G G G G G G G G G G G G H S   o - ' ' ' Y Y U X X X X X # G G G G G G G G G G G H H H F ",
"G G G G G G G G G G G G G G G G G S o X = ' ' ' Y Y Y X X X X X # H H H G G G G G G G G G G G F ",
"G G G G G G G G G G G G G G S 9 9 s X.X.X.@.o.o.} } { . X $ Z Z Z D H H G G G G G G G G G G H F ",
"G G G G G G G G G G G G G G S X X t #.#.#.#.#.#. . . .. o $ G G G G H H G G G G G G G G G G G F ",
"G G G G G G G G G G G G G G Z X o t #.#.#.#.#.#. . . .X . $ G G G G G H G G G G G G G G G G H F "
};
