/* XPM */
static char *playerRight[] = {
/* columns rows colors chars-per-pixel */
"48 48 105 2 ",
"   c #162C5F",
".  c #1A2E5F",
"X  c #37355F",
"o  c #162D60",
"O  c #1B2F60",
"+  c #1D3160",
"@  c #292F65",
"#  c #233561",
"$  c #2E3261",
"%  c #273A61",
"&  c #2B3D61",
"*  c #2B3668",
"=  c #2E386B",
"-  c #343B63",
";  c #3D3C62",
":  c #3E3B68",
">  c #443B64",
",  c #4C3F60",
"<  c #39446E",
"1  c #3B4670",
"2  c #3E4379",
"3  c #4E405F",
"4  c #56445F",
"5  c #58465F",
"6  c #4E5559",
"7  c #515759",
"8  c #535A59",
"9  c #4B4C67",
"0  c #4A4569",
"q  c #495D64",
"w  c #515067",
"e  c #56546A",
"r  c #444C79",
"t  c #66616D",
"y  c #656070",
"u  c #B0676E",
"i  c #B2696F",
"p  c #B86E6D",
"a  c #B26C73",
"s  c #B36F78",
"d  c #B57074",
"f  c #B97171",
"g  c #B27179",
"h  c #5DAA6C",
"j  c #6AAF6E",
"k  c #73B26F",
"l  c #9FBE77",
"z  c #A5BE6F",
"x  c #A0BF78",
"c  c #DB8E5D",
"v  c #DE905C",
"b  c #E49557",
"n  c #E29358",
"m  c #E5985F",
"M  c #E49B65",
"N  c #F6AD7D",
"B  c #FDB17F",
"V  c #B3CC6B",
"C  c #ABC671",
"Z  c #AFCC73",
"A  c #A6C679",
"S  c #AACC7B",
"D  c #B1CD73",
"F  c #AFD07C",
"G  c #B0D17C",
"H  c #65308A",
"J  c #6D3788",
"K  c #6C3A89",
"L  c #703A88",
"P  c #5E5991",
"I  c #774086",
"U  c #635D96",
"Y  c #6A5E94",
"T  c #715F92",
"R  c #6F6797",
"E  c #66609B",
"W  c #736796",
"Q  c #7B6E97",
"!  c #786E98",
"~  c #9F8190",
"^  c #A6858F",
"/  c #AB878F",
"(  c #AD888E",
")  c #A18290",
"_  c #AC8C91",
"`  c #B49090",
"'  c #F8AF80",
"]  c #FFB583",
"[  c #FFB987",
"{  c #FBDAA6",
"}  c #F6DBA9",
"|  c #FBDEAB",
" . c #FEE2AE",
".. c #968BDD",
"X. c #A28CD5",
"o. c #A49BDF",
"O. c #A69DE2",
"+. c #BBBDE5",
"@. c #C7C3E6",
"#. c #C3C6ED",
"$. c #C9C6E9",
"%. c #C7CAEF",
"&. c #ECECEE",
"*. c #F3F2F8",
"=. c #FBFBFB",
/* pixels */
"D Z Z D D D D D D C C z 8 8 6 6 6 7 7 6 6 7 7 6 6 7 8 8 7 8 8 8 8 D D D D D D D D D Z D D D D V ",
"F F F F G G F G G A A x O # O O O O O O O O O O O O O O O + O . % F G G F G F F F F G S F F F D ",
"F F F F F F F F S A A x O O O O . . O O o O O O O O o O o O O O % G G S F F F F F F G G F F G D ",
"F F F F F F F F A O # 3 n b n b b b n n b b b b b b b b b b b b b o + % F F F F F F F F F S G D ",
"F F F F F F F F A # O 4 b b b b b b b b b b b b b b b b b b b b v . + % F F F F F F F F F F G D ",
"F F F F F F F F A . . 4 b b b b b b b b b b b b b b b b b b b b v   o # G F F F F F F F F F G D ",
"F F F F S A + # 5 b b b b b b b b b b b b b b b b b b b b b b b b b b b . # # F F F F F F F F D ",
"F F F G G A O O 5 b b b b b b b b b b b b b b b b b b b b b b b b b b b o . # F F F F F F F F D ",
"F F F F G A O O 4 b b b b b b b b b b b b b b b b b b b b b b b b b b b   . # G F G F F S G S D ",
"F F F F G A O O 4 b b b b b b b b b b b b b b b b b b b b b b b m =.=.=.  . . # $ # F F G G G D ",
"F F F F G A O O 4 b b b b b b b b b b b b b b b b b b b b b b b m =.=.=.  + . + O + F F G G G D ",
"F F F F G A O O 4 b b b b b b b b b b b b b b b b b b b b b b b M =.=.=.  . .   o + G F S G G D ",
"F F F F F A O O 4 b b b b b b b b b b b b b b b b b b b b b b b m =.=.=.u u i b v b + % % S G D ",
"F F F F S A + O 5 b b b b b b b b b b b b b b b b b b b b b b b m =.=.=.i i i b b b o + O G G D ",
"F F F F G A O O 4 b b b b b b b b b b b b b b b b b b b b b b b M =.=.=.u i a b b b o + + G G D ",
"F F F F G A O O > i i p b b b b b b b b b b b b b b b b b b b b n d d d b n n b b b o + + G S D ",
"G G G G G A O . > u i p b b b b b b b b b b n b b b b b b b b b b i i i b b b b b b   . + S G D ",
"G S G G G A O # > i i p b b b b b b b b b b b b b b b b b b b b n i i i b b b b b b   . O G G D ",
"G S S G S A O O $ Y Y T i i i i i i p p i i a i i i i i p i p i p n b b b b b X X - S S S G F Z ",
"G G G G G A O + * U Y Y i i i i i i i a i i i i i i i i i i i i i b b b b b n . + + F G F F F D ",
"G S G G G A . O * U U Y u i i i i i i i i i a i i i i i i i i i i b b b b b b o . + F F F F F D ",
"G G G G S A + . : ^ ^ ~ Y U Y Y Y Q  .| | |  .} U Y W  .| | @ $ <  . .{ X - ; S S S F F F F G D ",
"F F G S F A . + < ^ ^ ^ U U U U U !  . . . . .| U U R  . . .. . -  . . .  . # S G F F F F F F D ",
"F F F F G A + . > ^ ^ ~ U U U U U !  . . . . . .U U R  . .| O . -  . . .  + # F G G F F F F F D ",
"F F F F F A O O < ^ ^ ^ ^ ^ ^ ^ ) _  . . . . .| ^ ~ _ |  .| o O -  . . .o + # F F F F F F F G D ",
"F F F F F A O O : ^ ^ ^ ^ ^ ^ ^ _ `  . . . . .| ^ ^ _  . . .o O -  . . .o O # F F F F F F F G D ",
"F F F F F A O O > _ ^ ^ ^ ^ ^ ^ ) _  . . . . . .^ ^ _  . .| o O -  . . .o O + F F F F F F F G D ",
"F F F F F F S S x - - 0 ^ ^ ^ ^ ) _ _ _ ` [ ] ] ^ ^ / ] [ [ | } } 9 9 9 A S S F F F F F F F G D ",
"F F F F F F F F A O # : ^ ^ ) _ _ ) _ ) ( ] ] ' ^ ) / ] ] ]  . . .o O # F F F F F F F F F F F D ",
"F F F F F F F F A O O : ^ ^ ^ ) ) _ ^ ) ( ] ] ] ^ _ / ] ] ]  . . .o O # F F F F F F F F F F F D ",
"F F F F F F F F S S A A - - : K K L a a a p f a u a g $.$.@.w w e S S S F F F F F F F F F F G D ",
"F F F F F F F F G G G A O O $ H H J i i i i i i i a s #.#.#.O + % F F F F F F F F F F F F F F D ",
"F F F F F F F F F F F A O O @ H H J i i i i i i i i s #.%.#.. . % G G S F F F F F F F F F F F D ",
"F F F F F F F F F F F A O O , v v v n v c J J I n n M *.*.*.  . % G G G F F F F F F F F F F F D ",
"F F F F F F F F F F F S O O , b b b b b v H H L b b M =.=.=.  O % G G G F F F F F F F F F F F D ",
"F F F F F F F F F F F A O O 3 b b b b b v H H L b b M =.=.=.. O % G S G F F F F F F F F F F F D ",
"F F F F F S j j k F F S O O e | { { B B N @ @ > b b M =.=.=.. O % G G G G G G G F F F F F F F D ",
"F F F F S S h h j F F A O # e  . . .] ] ' O O ; b b M =.=.=.  O % G G S G S S G F F F F F F F Z ",
"F F F F G A h h j F F A O O e  . .| ] ] ' O O > b b M =.=.=.. + % S G G G G S G F F F F F F F D ",
"F F F F G S h h j F G S O O e  . . .| | { O O = X.X.X.O.O.o.. . % G G G G G G G F F F F F F F D ",
"F F F F S S h h j F F A O O e  . . . . . .o O = ............O O % F F F F F F F F F F F F F F D ",
"F F F F G A h h j F F S O O e  . . . . .} O O = ............. O % F F F F F F F F F F F F F F Z ",
"F F F F G F S S S F F F A A x y y y t t y P P U ......: 2 r A A A F F F F F F F F F F F F F F D ",
"F F F F F F F F S F F F S G S O O O O O # U U E ....... O & G S F F F F F F F F F F F F F F F D ",
"F F F F F F F F F F F F G F A O O O O O * U U E ......+ O % G G F G F F F F F F F F F F F F F D ",
"F F F F F F F F F F F F G G F A A l O O < +.+.+.*.*.*.*.&.&.q q q G F F F F F F F F F F F F F D ",
"F F F F F F F F F F F F F F F F G S O O 1 #.%.%.=.=.=.=.=.=.o + % F F F F F F F F F F F F F F D ",
"F F F F F F F F F F F F F F F F S S O O 1 #.#.%.=.=.=.=.=.=.o O % F F F F F F F F F F F F F F D "
};
