/* XPM */
static char *playerDown[] = {
/* columns rows colors chars-per-pixel */
"48 48 97 2 ",
"   c #162C5F",
".  c #1A2E5F",
"X  c #38365F",
"o  c #162D60",
"O  c #1C2F60",
"+  c #1E3260",
"@  c #233561",
"#  c #273A61",
"$  c #2C3E61",
"%  c #2A3669",
"&  c #333761",
"*  c #3A3661",
"=  c #333A63",
"-  c #3A3C63",
";  c #323B6F",
":  c #333C70",
">  c #493E5F",
",  c #403762",
"<  c #443B62",
"1  c #4D3E62",
"2  c #394064",
"3  c #3C466C",
"4  c #3D5163",
"5  c #4E405F",
"6  c #53425F",
"7  c #4E5559",
"8  c #515759",
"9  c #535A59",
"0  c #4A4463",
"q  c #4C4D67",
"w  c #514563",
"e  c #574863",
"r  c #5E4A64",
"t  c #554A68",
"y  c #415363",
"u  c #595166",
"i  c #5E5862",
"p  c #515876",
"a  c #565D78",
"s  c #614E65",
"d  c #645565",
"f  c #615D6C",
"g  c #66616D",
"h  c #6A6D6E",
"j  c #60667F",
"k  c #AB666E",
"l  c #B2696F",
"z  c #B46F75",
"x  c #B77775",
"c  c #B97775",
"v  c #B97875",
"b  c #B3727C",
"n  c #5DAA6C",
"m  c #9DBC77",
"M  c #A0BD78",
"N  c #D98E59",
"B  c #DC9058",
"V  c #E49557",
"C  c #E29458",
"Z  c #E69E6C",
"A  c #F3AB7C",
"S  c #FDB17F",
"D  c #B3CC6B",
"F  c #ABC671",
"G  c #AFCC73",
"H  c #A6C679",
"J  c #A8C77A",
"K  c #ABCC7B",
"L  c #B1CD73",
"P  c #AFD07C",
"I  c #B0D17C",
"U  c #635D96",
"Y  c #695F96",
"T  c #766392",
"R  c #796591",
"E  c #A6858F",
"W  c #A8868F",
"Q  c #AE8F92",
"!  c #B09092",
"~  c #F4AD82",
"^  c #FEB482",
"/  c #FFB886",
"(  c #FFBA88",
")  c #F5D6A5",
"_  c #F5DBA9",
"`  c #FCDEAB",
"'  c #FFE3AE",
"]  c #8E83D2",
"[  c #968ADD",
"{  c #C8C7E7",
"}  c #C4C6ED",
"|  c #C9C9EA",
" . c #EDEDEF",
".. c #EBEAF2",
"X. c #F6F5F6",
"o. c #F2F1F8",
"O. c #FBFBFB",
/* pixels */
"L G G L L L L L L L L L L L F 7 7 8 7 7 7 9 8 7 7 9 9 9 8 9 9 9 9 L L L L L L L L L L L L L L D ",
"P P P P I P P I P P I I I I H + + O O + O O O O O O O O O O O O # P P P P P P P P P P P P P P L ",
"P P P P P P P P P P P I P P J O o O O o O o O O O O o O o O O O # P P P P P P P P P P P P P P L ",
"P P P P P P P P P P P J + O 5 V V V V V V V V V V V V V V V V V V o + @ P P P P P P P P P P P L ",
"P P P P P P P P P P P H + . w V V V V V V V V V V V V V V V V V V o + # P P P P P P P P P P P L ",
"P P P P P P P P I K P J . . 1 V V V V V V V V V V V V V V V V V B o o @ P P P P P P P P P P P L ",
"P P P P P P P P H @ + 6 V V V V V V V V V V V V V V V V V V V V V V V V . + @ P P P P P P P P L ",
"P P P P P P P P H + . 6 V V V V V V V V V V V V V V V V V V V V V V V V o . @ P P P P P P P P L ",
"P P P P P P P P H O O 6 V V V V V V V V V V V V V V V V V V V V V V V V o + @ P P P P P P P P L ",
"P P P P P P P P H + O 6 V V V V V V V V Z O.O.O.} } { V V V V V V V V V o + @ P P P P P P P P G ",
"P P P P P P P P H O O 6 V V V V V V V V Z O.O.O.} } } V V V V V V V V V o O + P P P P P P P P L ",
"P P P P P P P P J O O 6 V V V V V V V V Z O.O.O.} } } V V V V V V V V B o + @ P P P P P P P P L ",
"P P P P P P P P H . O 6 V V V V V V V V Z O.O.O.O.O.X.V V V V V V V V V   . @ P P P n n n P P L ",
"P P P P P P P P J O O 6 V V V V V V V V Z O.O.O.O.O.O.V V V V V V V V V . . @ P P P n n n P P L ",
"P P P P P P P P H + . 6 V V V V V V V V Z O.O.O.O.O.O.V V V V V V V V V o + @ P P P n n n P P G ",
"P P P P P P P P H . O < l l l l l l l l l z x z z z z l l l l z l l l l O O @ P P I n n n P P L ",
"P P P P P P P P J O O , l l k z l l l l l l l l l l l l l l l l l l l l o O @ I P P n n n P P L ",
"P P P P P P P P J o o * l l l z l l l l l l l l l l l l l l l l l z l l o o + I P P n n n P P G ",
"P P P P P J $ $ d ^ ^ ~ U Y T V V V V V C V C V C C C V C C C C C U Y Y ~ ^ ~ # # 2 K P P P P G ",
"P P P P P H O O s ^ ^ ~ U U T C V V V V V V V V C V V V V V V V V U U U ^ ^ ^   o + P P P P P L ",
"P P P P P H O O s ^ ^ ~ U U T C V V V V V V V V V V V V V V V V V U U U ^ ^ ^ o . + P P P P P L ",
"P P P P K H O O s S ^ ~ E E Q ` ' ) * * u ' ' ' ' ' _ & X 0 ' ' _ E W W ^ ^ ^ o + + P P P P I L ",
"P P P P P H O O s ^ ^ ~ W E ! ' ' _ + O q ' ' ' ' ' ` O + 2 ' ' ' E E W ^ ^ ^ o . + P P P P P L ",
"P P P P P H O O s ^ ^ ^ W W ! ' ' _ O O q ' ' ' ' ' ` o . - ' ' ' E E W ^ ^ ^ o . + P P P P P L ",
"P P P P P P K K M 1 < t W W ! ' ' _ O O q ' ' ' ' ' ` o O 2 ' ' ` E W E < < 0 H K K P P P P I L ",
"P P P P P P P K H O + - W W ! ' ' _ O + q ' ' ' ' ' ' O O - ' ' ' E E E o + @ P P P P P P P I L ",
"P P P P P P P P H O O - W E Q ' ' _ . O q ' ' ' ' ' ` o O - ' ' ' E E E O + + P P P P P P P P L ",
"P P P P P P P P P K J H = = r ( ( ( _ ' _ ' ' ' ' ' ' _ _ _ ( ( / = & 2 K J K P P P P P P P I L ",
"P P P P P P P P P P P J O O e ^ ^ ( ' ' ' ' ' ' ' ' ' ' ' ' ^ ^ ^   . @ P P P P P P P P P P P L ",
"P P P P P P P P P P P J O . e ^ ^ ( ' ' ' ' ' ' ' ' ' ' ' ' ^ ^ ^ o O @ P P P P P P P P P P P L ",
"P P P P P P P P P P P J O O @ w w s c v W { | | | | { c v x w w w O . # P P P P P P P P P P K L ",
"P P P P P P P P P P P J O O O O . X l l b } } } } } } l l k + + O + . @ P P P P P P P P P P I G ",
"P P P P P P P P P P I J . . + . + X l l b } } } } } } k l l O O O O O @ P P P P P P P P P P P G ",
"P P P P P P P P J y 4 d B B N k l l V C Z X.O.O.O.O.X.N C N k k k N B N 4 4 4 P P P P P P P P G ",
"P P P P P P P P H O O 6 V C C l l l V V Z O.O.O.O.O.O.V V V l l l V V V o + + P P P P P P P P L ",
"P P P P P P P P H O O 1 V C C l l l V V Z O.O.O.O.O.O.V V C l l l V V V   . @ P P P P P P P P L ",
"P P P P P J y y h ) ) ) S S A , > 6 V V Z O.O.O.O.O.O.V V V > X 1 S S S ) _ _ 4 y y P P P P P G ",
"P P P P P H O O g ' ' ` ^ ^ A . . > V V Z O.O.O.O.O.O.V V B + . & ^ ^ ^ ' ' ' o + + P P P P P L ",
"P P P P P H . O i ' ' ' ^ ^ ~ + . > V V Z O.O.O.O.O.X.V V V   . & S ^ S ' ' ' o . + P P P P P L ",
"P P P P P H . . g ' ' ' ` ` ) . . $ R R R j j U U j h R R R . . = ' ` ' ' ' ' o + + P P P P P L ",
"I I I I K H O O a ' ' ' ' ' _ + O @ U U U O O O O O @ U U U O O = ' ' ' ' ' ' o O + P P P P P L ",
"P I K I I H O O f ' ' ' ' ' _ O + @ U U U O O O O O @ U U U O O = ' ' ' ' ' ' o O + P P P P K G ",
"P P K I I K J H M g g g g g f O . ; [ [ ] O O O O O % [ ] ] . + @ g g g g g g H H H P P K I I L ",
"P P I I I I K I H + . + O O + O . ; [ [ [ O O O O O % [ [ [ . + O O O O O O @ I P P P P I I I L ",
"P P P P I I K I H O O O O O O O + : [ [ [ O O O O O % [ [ [ + + O O O O O O @ K K I I K I P P L ",
"P P P P I K I I K H H m O O p  . ...o.o...O O O O O 3 o.o.o..... .o O @ J J H K I I I I I P I L ",
"P P P P I I I I I I P H O O a O.O.O.O.O.o.O O O O O q O.O.O.O.O.O.  O @ I K I I I I I I I I P L ",
"P P P P I I K I I K P J O + a O.O.O.O.O.X.O O O O O 3 O.O.O.O.O.O.  O # I I K I I K K I I K I L "
};
