/* XPM */
static char *wall[] = {
/* columns rows colors chars-per-pixel */
"48 48 75 1 ",
"  c black",
". c #171833",
"X c #181833",
"o c #1A1B33",
"O c #191A34",
"+ c #1A1A34",
"@ c #1B1C34",
"# c #1B1D34",
"$ c #1B1E35",
"% c #1A1F35",
"& c #1B1F35",
"* c #1C1E34",
"= c #1C1F35",
"- c #1B2035",
"; c #1C2136",
": c #1D2435",
"> c #4F502F",
", c #4D4E30",
"< c #545430",
"1 c #545530",
"2 c #185759",
"3 c #195759",
"4 c #1A5759",
"5 c #1B5759",
"6 c #1B5859",
"7 c #1C5859",
"8 c #1D5859",
"9 c #1C5959",
"0 c #215A59",
"q c #235B5A",
"w c #245B5A",
"e c #435041",
"r c #445041",
"t c #4C5A44",
"y c #4C5B45",
"u c #4E6C53",
"i c #506D53",
"p c #506E53",
"a c #526E53",
"s c #4C745F",
"d c #4D755F",
"f c #537053",
"g c #557153",
"h c #567153",
"j c #587353",
"k c #5B7553",
"l c #4F7760",
"z c #278077",
"x c #268177",
"c c #278177",
"v c #288077",
"b c #288177",
"n c #298177",
"m c #298277",
"M c #2C8277",
"N c #2D8277",
"B c #5CA96C",
"V c #5DA96C",
"C c #5CAA6C",
"Z c #5DAA6C",
"A c #5FAA6C",
"S c #5EAB6C",
"D c #5FAB6C",
"F c #B3CB6A",
"G c #AFCB72",
"H c #AFCB73",
"J c #AECF7B",
"K c #AECF7C",
"L c #B0CB72",
"P c #B0CC73",
"I c #B0CD73",
"U c #B3CE72",
"Y c #B3CF74",
"T c #AED07C",
"R c #AFD07C",
/* pixels */
"FUUUUUUHRjkjhhsjjahjhIIYUUUUPUUUIYYUPHUHUHHUULLY",
"URRRRKRRT688855588886RRKKKRRKKRKRRKKRKRRRRRRRRRR",
"URRRRRRRT868556555555RRRKRRRRRRRRRRRRKRRRRRRRRRR",
"HRRRRRRRT686CCCKKKKKKqqqRRRRRRRRRRRRwqwqqqqqwRRR",
"URRKRRRRK868CCCRKKRRR866RRRRRRRRRRRR666666777KRR",
"IRRKRRRRK886DDCRKKRRK525RRRKRRRRRRRR256544999RRR",
"hwqqqqmMMvvmCCCRKRRRKKKKwwwMMMqqqqqqKKKKJJ667RRR",
"p97999zmmvmmCDCRRRRRRRRR499bbb966666RRRRRR667KRR",
"p97499xxxxxxSCCRRRRRRRRR746sxx226655RRRRRR886RRR",
"h67KRTRTTTTT68wCDSRRRDSSVVV622CCSRKKRRRCAA$%%RRR",
"p77KTRTTRTTT368CVSRRRSCCVVS696CCVRRRRRRCVV%=%KRR",
"p99KTTTTRTTT666CCSRRRSCCVSV692CCSRRRRRRCVV+=%KRR",
"i77MMMTTRSSDRRT8q9VDSSCCVCV999xxzSSSRRR;==AVCRRR",
"u74mmmTTTSCCRRT666SVSCCCVCC999mxzCSSRRR+=%VVCRRR",
"p44msxTTTCCSRRR879CSSVSDSCS999xmzSVVRRK++;VVCRRR",
"LKK$%%29wmmmCDD8799qwmbb;;;mbxSSVRRRqqw9699wqRRR",
"KRKO$;883mvmDBB877776bbb$$%sxxCCVRRR996666666RRR",
"KRROO$333mmmBCC847746bbb++.sxxCCVKRR255555666RRR",
"iwwKKKRRKBCCw83CVVVCVSCCRKK722xxmqqqKKKKTKlxzq6l",
"a83KKKRRKBCC888BVCCCCCSVKKK722xxz895RRRRTKxxz55l",
"a88KRRRRRCBB388CVSCSVSCCTTT222xxm698RRRRTTxxx26l",
",+$ADDDDDw8qmzmCSVVVCRRRSSSCCC226mmzDDCCCC;%;TTT",
",+$VCDCCC638vmmDCCCSCKRRSCSCSS995zmmVCVVCC%%;TTT",
"<++VCCCCC688mmmCSVCCCRRRCSCCCS225mmmDCVVCC...RTT",
"JKR=;;9wq383383CCDRRTSSSCSCTTTTTK69999q;=;KKKRRR",
"PKR$$$79883q838CCCRKTCCCCSCTTTRRR599896+=$RRRRRR",
"PRR+$$778338888CDCTKTCCCCCCTRRRRR995569O++KKRRRR",
"PKR$++VVCvmm386mmmSCSSCCTTTTRRRRK588VVVKKKwwwRRR",
"RTT;$$AACmmm383mmvCCCCCCRRRRRRRRR989CCCRKR995KKR",
"HTT%ooBABmmv838zmmCCCCCCRRRRRRRRK985DCCRKK555KRR",
"fq9CCCsxmBBBKKKmmzw86q9qSCCRRRNNN58999qCVVKKKwwl",
"u62CCCxxmCCBKKKmzv88q69qSCCRRRmmn889999CCVKKK50l",
"f66CBBxxxBDDTTTxxx686885VVVRKKccc655229SSSTTT99l",
"1;;;;;666TTTDDBTRRxbx;$$858wqq669RKK229xxxSSS;;y",
"<+%%;%226TTRCDCTRRxxb$==686856996RKR222sxmSSB$;y",
">.++.%226TRRCCCTRRbxb$O=866655896RRR222mxxSSBO$y",
"HKTJJJ%%:TTTq69ACSmms**$689KKKcccVCCRRK866xxl%%q",
"URRRRR.%;TTT666ASCmmx$oo869KKKcncVVDRRR822xxz$;y",
"HRRRRJo%;TTT996BCCxxx%$;685KRRcnnCCCRRR966xxlOOy",
"HRRqqqsxxq22sbb622;;;   ===NNNVVCCCCVDV;;;$$OKKK",
"IRK889ncx668xbb897$o$   $+;bzmVVCCCCCCC;;;O$$KRR",
"PRK959cnx688bbx899Xoo   o.obmmVVCCCCCCC:$$OOOKRR",
"PRR=%=ncbbbb888;$oKKKJJJJJK$%;779CCCxxw:;$KKKRRR",
"IRR+=+cnbbbb636;$$RRKKRRKKKo$$999SCCxxl=%$KKRRRR",
"IRR$=+ncbbbx855OoXKRRRRRKRRo++449CCCnnc+$$RRRRRR",
"IRR+=O$;;=;;;$$KKKKRRRRRRRKKKK%$;;;;%;;%$$RRRRRR",
"PRR$$$$$$O;OO$$KRRRRRRRRRRKKRR+$@@;;;+++$%RRRRRR",
"YRRreeeereerrerKRRRRRRRRRRRRRKrrrrtwerrreeRRRRRR"
};
